X:1
T:Boscomb Bucks
M:C|
L:1/8
R:Country Dance
B:John Walsh - Caledonian Country Dances (London, c. 1745 , p. 14)
N:Published in several volumes and editions 1731-c. 1745
Z:AK/Fiddler's Companion
K:G
B2 A/B/c/A/ BG Gg|dd de B3d|BGAF gfed|
^c/d/e Ac d4:||A2 G/A/B/G/ A A2A|B>c/2d/4 cB B2A2|
GG Gg GG G2|AA Aa AA A2|cc (c/B/)A Bedc|B2A2 G4|
^cccc dD DD|cc cB/A/ Bg2g|ac cB/A/ Bedc|B2A2G4|
B2 A/B/c/A/ BGFG|B2 A/B/c/A/ BGFG|Dc cB/A/ Bedc|B2A2 G4||
